workspaces/osm/styles/symbols/shop/variety_store.svg

<svg width="14" height="14" version="1.1" viewBox="0 0 14 14" xmlns="http://www.w3.org/2000/svg"><rect id="a" width="14" height="14" fill="none" visibility="hidden"/><path id="b" d="m5 0c-0.31634 0.03046-0.77284-0.099303-0.94727 0.24414-0.094689 0.4486-0.037646 0.91346-0.050736 1.3696 0.0025904 0.79541 0.0051808 1.5908 0.0077712 2.3862h-3.0098c0.00246 3.1331-0.004968 6.2663 0.00381 9.3993-0.07534 0.40832 0.28477 0.67072 0.66611 0.59872 3.5534 0.0032 7.1068 0.0033 10.66 0 0.38134 0.07199 0.74145-0.1904 0.66611-0.59872 0.0087797-3.133 0.0013697-6.2662 0.0038197-9.3993h-2.9609c-0.019987-1.1926-0.021596-2.3862-0.054687-3.5781 0.0096034-0.43436-0.49516-0.43712-0.80835-0.42163-1.392-5.6162e-4 -2.784-8.7312e-5 -4.176-2.4414e-4zm4 1v3h-4v-3h4zm-4 4h3v7h-3v-1h2v-2h-2v-4zm4 0h3v7h-3v-1h2v-2h-2v-4zm-3 1v2h1v-2h-1zm4 0v2h1v-2h-1zm-8 5h2v2.4893h-1v-1.4893h-1v-1z"/></svg>

<?xml version="1.0" encoding="UTF-8" standalone="no"?>
<svg
   xmlns:dc="http://purl.org/dc/elements/1.1/"
   xmlns:cc="http://creativecommons.org/ns#"
   xmlns:rdf="http://www.w3.org/1999/02/22-rdf-syntax-ns#"
   xmlns:svg="http://www.w3.org/2000/svg"
   xmlns="http://www.w3.org/2000/svg"
   version="1.1"
   width="14"
   height="14"
   viewBox="0 0 14 14"
   id="svg2">
  <defs
     id="defs3053" />
  <metadata
     id="metadata8">
    <rdf:RDF>
      <cc:Work
         rdf:about="">
        <dc:format>image/svg+xml</dc:format>
        <dc:type
           rdf:resource="http://purl.org/dc/dcmitype/StillImage" />
        <dc:title></dc:title>
      </cc:Work>
    </rdf:RDF>
  </metadata>
  <rect
     width="14"
     height="14"
     x="0"
     y="0"
     id="canvas"
     style="fill:none;stroke:none;visibility:hidden" />
  <path
     id="variety_store"
     d="M 5,0 C 4,0 4,0 4,1 L 4.0097656,4 1,4 1,13 c 0,1 0,1 1,1 l 10,0 c 1,0 1,0 1,-1 L 13,4 10.039062,4 10,1 C 10,0 10,0 9,0 Z M 9,1 9,4 5,4 5,1 Z M 5,5 8,5 8,12 5,12 5,11 7,11 7,9 5,9 Z m 4,0 3,0 0,7 -3,0 0,-1 2,0 0,-2 -2,0 z M 6,6 6,8 7,8 7,6 Z m 4,0 0,2 1,0 0,-2 z m -8,5 2,0 0,2.48929 -1,0 L 3,12 2,12 Z" />
</svg>
